X:1
T:Larid : Grain de sel
Z:Roger Ngaret (94-95)
R:laride
C:Trad.
S:
A:Bretagne
Q:1/4=120
M:2/4
L:1/8
K:C
AB c2 | Bc A2 | e2 cd |1 ed cB :|2 ed c2 |:
e2 cd | ed cB | AB c2 |1 (3cBA B2 :|2 B2 A2 :|
Ae e2 | fd e2 | Ae ee | fd e2 |: Ae e2 | d2 c2 |
BA GA |1 Bc BB :|2 Bc A2 |]
